!!!OTL: Graserin und Reiter Es wolt ein meydlin grasen gan:
!!!ARE: Europa, Mitteleuropa, Deutschland
!!!YOR: 7, S. 126
!!    1546 gedruckt (1535 bis 1546) ; Satz: Heinrich Isaac
!!!SCT: Q0149
!!!YEM: Copyright 1995, estate of Helmut Schaffrath.
**kern
*ICvox
*Ivox
*M2/2
*k[b-e-]
*g:
{2g
=1
2b-
2b-
=2
2cc
2cc
=3
2dd
2dd
=4
1dd}
=5
{2.cc
4dd
=6
2ee
2ffn
=7
4ee
4dd
2ee
=8
1dd
=9
2r}
{2dd
=10
2gg
2ee
=11
2ffn
2dd
=12
2cc
2b-
=13
1a}
=14
{2cc
2cc
=15
2cc
2cc
=16
2dd
2ee
=17
1dd}
=18
{2.cc
4cc
=19
2cc
2cc
=20
2dd
2ee
=21
2dd
2r}
=22
{2cc
2b-
=23
2cc
2a
=24
[1g
=25
1g]
=26
1g
=27
2r}
==
!!!AGN: Ballade, Verfuehrung, Verlassen des Elternhauses
!! Tenor - Stimme (cf) aus einem vierstimmigen Satz von Heinrich Isaac.
!!    Notenwerte halbiert. Satzbedingte Pausen weggelassen.
!!!ONB: ESAC (Essen Associative Code) Database: BALLADE
!!!AMT: simple duple
!!!AIN: vox
!!!EED: Helmut Schaffrath
!!!EEV: 1.0
*-
